X: 4714
T: Boys Of Ballinahinch, The
R: reel
M: 4/4
K: Dmajor
f2 df edBA|(3Bcd ef g2 ag|f2 df edBA|dBAF EF D2|
f2 df edBA|(3Bcd ef g2 ag|f2 df edBA|dBAF EF D2||
faaf d3e|faaf g3e|faaf gfef|gfed Bdde|
faaf d3e|faaf g3a|bgaf gfed|(3Bcd ef g4||

